; generated by Slic3r 1.2.9 on 2016-11-06 at 08:36:17

; external perimeters extrusion width = 0.40mm
; perimeters extrusion width = 0.48mm
; infill extrusion width = 0.48mm
; solid infill extrusion width = 0.48mm
; top infill extrusion width = 0.48mm

M107
M104 S210 ; set temperature
G28 ; home all axes
;G1 Z5 F5000 ; lift nozzle

M109 S210 ; wait for temperature to be reached
G21 ; set units to millimeters
G90 ; use absolute coordinates
M82 ; use absolute distances for extrusion
G92 E0
G1 Z0.300 F6000.000
G1 E-2.00000 F1800.00000
G92 E0
G1 X59.840 Y59.436 F6000.000
G1 E2.00000 F1800.00000
G1 X60.263 Y59.021 E2.03956 F3000.000
G1 X63.375 Y56.219 E2.31932
G1 X63.832 Y55.842 E2.35888
G1 X67.167 Y53.310 E2.63863
G1 X67.653 Y52.972 E2.67820
G1 X71.189 Y50.728 E2.95795
G1 X71.702 Y50.432 E2.99751
G1 X75.413 Y48.492 E3.27726
G1 X75.949 Y48.240 E3.31684
G1 X79.809 Y46.617 E3.59659
G1 X80.364 Y46.411 E3.63615
G1 X84.347 Y45.117 E3.91590
G1 X84.917 Y44.958 E3.95545
G1 X88.994 Y44.001 E4.23521
G1 X89.576 Y43.890 E4.27478
G1 X93.719 Y43.279 E4.55453
G1 X94.308 Y43.217 E4.59410
G1 X98.487 Y42.954 E4.87385
G1 X99.079 Y42.941 E4.91341
G1 X103.056 Y43.025 E5.17917
G1 X103.857 Y43.066 E5.23271 F3000.000
G1 X108.021 Y43.504 E5.51247
G1 X108.607 Y43.590 E5.55204
G1 X112.721 Y44.375 E5.83179
G1 X113.297 Y44.510 E5.87134
G1 X117.330 Y45.636 E6.15109
G1 X117.894 Y45.819 E6.19065
G1 X121.819 Y47.279 E6.47041
G1 X122.365 Y47.509 E6.50998
G1 X126.154 Y49.292 E6.78974
G1 X126.679 Y49.566 E6.82930
G1 X130.305 Y51.660 E7.10905
G1 X130.805 Y51.977 E7.14860
G1 X134.244 Y54.367 E7.42836
G1 X134.716 Y54.725 E7.46794
G1 X137.942 Y57.394 E7.74769
G1 X138.382 Y57.791 E7.78724
G1 X141.374 Y60.720 E8.06699
G1 X141.779 Y61.152 E8.10655
G1 X144.516 Y64.322 E8.38631
G1 X144.883 Y64.786 E8.42587
G1 X147.345 Y68.174 E8.70562
G1 X147.673 Y68.667 E8.74520
G1 X149.842 Y72.249 E9.02495
G1 X150.127 Y72.768 E9.06450
G1 X151.989 Y76.519 E9.34426
G1 X152.230 Y77.060 E9.38383
G1 X153.772 Y80.954 E9.66359
G1 X153.966 Y81.513 E9.70313
G1 X155.177 Y85.522 E9.98288
G1 X155.324 Y86.095 E10.02246
G1 X156.195 Y90.192 E10.30222
G1 X156.293 Y90.775 E10.34177
G1 X156.818 Y94.930 E10.62153
G1 X156.868 Y95.520 E10.66108
G1 X157.043 Y99.704 E10.94084
G1 X157.043 Y100.296 E10.98040
G1 X156.868 Y104.480 E11.26016
G1 X156.818 Y105.070 E11.29971
G1 X156.293 Y109.225 E11.57947
G1 X156.195 Y109.808 E11.61902
G1 X155.324 Y113.905 E11.89878
G1 X155.177 Y114.478 E11.93836
G1 X153.966 Y118.487 E12.21811
G1 X153.772 Y119.046 E12.25765
G1 X152.230 Y122.940 E12.53741
G1 X151.989 Y123.481 E12.57698
G1 X150.127 Y127.232 E12.85674
G1 X149.842 Y127.751 E12.89629
G1 X147.673 Y131.333 E13.17604
G1 X147.345 Y131.826 E13.21561
G1 X144.883 Y135.214 E13.49537
G1 X144.516 Y135.678 E13.53493
G1 X141.779 Y138.848 E13.81469
G1 X141.374 Y139.280 E13.85425
G1 X138.382 Y142.209 E14.13400
G1 X137.942 Y142.606 E14.17355
G1 X134.716 Y145.275 E14.45330
G1 X134.244 Y145.633 E14.49288
G1 X130.805 Y148.023 E14.77264
G1 X130.305 Y148.340 E14.81219
G1 X126.679 Y150.434 E15.09194
G1 X126.154 Y150.708 E15.13150
G1 X122.365 Y152.491 E15.41126
G1 X121.819 Y152.721 E15.45083
G1 X117.894 Y154.181 E15.73059
G1 X117.330 Y154.364 E15.77014
G1 X113.297 Y155.490 E16.04989
G1 X112.721 Y155.625 E16.08945
G1 X108.607 Y156.410 E16.36920
G1 X108.021 Y156.496 E16.40877
G1 X103.857 Y156.934 E16.68853
G1 X103.266 Y156.971 E16.72809
G1 X99.079 Y157.059 E17.00784
G1 X98.487 Y157.046 E17.04740
G1 X94.308 Y156.783 E17.32715
G1 X93.719 Y156.721 E17.36671
G1 X89.576 Y156.110 E17.64647
G1 X88.994 Y155.999 E17.68604
G1 X84.917 Y155.042 E17.96579
G1 X84.347 Y154.883 E18.00534
G1 X80.364 Y153.589 E18.28510
G1 X79.809 Y153.383 E18.32466
G1 X75.949 Y151.760 E18.60441
G1 X75.413 Y151.508 E18.64399
G1 X71.702 Y149.568 E18.92374
G1 X71.189 Y149.272 E18.96330
G1 X67.653 Y147.028 E19.24305
G1 X67.167 Y146.690 E19.28262
G1 X63.832 Y144.158 E19.56237
G1 X63.375 Y143.781 E19.60193
G1 X60.263 Y140.979 E19.88169
G1 X59.840 Y140.564 E19.92125
G1 X56.974 Y137.512 E20.20100
G1 X56.587 Y137.063 E20.24057
G1 X53.986 Y133.782 E20.52032
G1 X53.637 Y133.302 E20.55988
G1 X51.320 Y129.814 E20.83964
G1 X51.013 Y129.308 E20.87919
G1 X48.996 Y125.638 E21.15894
G1 X48.733 Y125.108 E21.19851
G1 X47.029 Y121.282 E21.47827
G1 X46.811 Y120.732 E21.51782
G1 X45.434 Y116.777 E21.79757
G1 X45.263 Y116.210 E21.83714
G1 X44.222 Y112.154 E22.11689
G1 X44.098 Y111.575 E22.15646
G1 X43.400 Y107.446 E22.43622
G1 X43.326 Y106.858 E22.47577
G1 X42.976 Y102.685 E22.75553
G1 X42.951 Y102.094 E22.79509
G1 X42.951 Y97.906 E23.07484
G1 X42.976 Y97.315 E23.11440
G1 X43.326 Y93.142 E23.39416
G1 X43.400 Y92.554 E23.43371
G1 X44.098 Y88.425 E23.71347
G1 X44.222 Y87.846 E23.75304
G1 X45.263 Y83.790 E24.03279
G1 X45.434 Y83.223 E24.07236
G1 X46.811 Y79.268 E24.35211
G1 X47.029 Y78.718 E24.39166
G1 X48.733 Y74.892 E24.67142
G1 X48.996 Y74.362 E24.71099
G1 X51.013 Y70.692 E24.99074
G1 X51.320 Y70.186 E25.03030
G1 X53.637 Y66.698 E25.31005
G1 X53.986 Y66.218 E25.34962
G1 X56.587 Y62.937 E25.62936
G1 X56.974 Y62.488 E25.66893
G1 X59.799 Y59.480 E25.94467
G1 X60.231 Y59.802 F6000.000
G1 X60.622 Y59.420 E25.98124 F3000.000
G1 X63.734 Y56.617 E26.26099
G1 X64.155 Y56.268 E26.29756
G1 X67.324 Y53.863 E26.56333
G1 X67.940 Y53.424 E26.61387
G1 X71.476 Y51.180 E26.89363
G1 X71.950 Y50.907 E26.93019
G1 X75.661 Y48.967 E27.20994
G1 X76.156 Y48.734 E27.24652
G1 X80.017 Y47.111 E27.52627
G1 X80.530 Y46.920 E27.56283
G1 X84.512 Y45.626 E27.84258
G1 X85.040 Y45.479 E27.87914
G1 X89.116 Y44.523 E28.15890
G1 X89.654 Y44.420 E28.19547
G1 X93.797 Y43.808 E28.47522
G1 X94.341 Y43.751 E28.51179
G1 X98.521 Y43.488 E28.79155
G1 X99.068 Y43.477 E28.82811
G1 X103.045 Y43.560 E29.09387
G1 X103.801 Y43.599 E29.14442 F3000.000
G1 X107.965 Y44.037 E29.42417
G1 X108.507 Y44.117 E29.46074
G1 X112.620 Y44.901 E29.74049
G1 X113.153 Y45.026 E29.77705
G1 X117.186 Y46.152 E30.05680
G1 X117.707 Y46.321 E30.09336
G1 X121.632 Y47.781 E30.37312
G1 X122.137 Y47.993 E30.40970
G1 X125.926 Y49.776 E30.68945
G1 X126.411 Y50.030 E30.72601
G1 X130.037 Y52.124 E31.00577
G1 X130.499 Y52.417 E31.04232
G1 X133.938 Y54.807 E31.32208
G1 X134.374 Y55.138 E31.35866
G1 X137.601 Y57.807 E31.63841
G1 X138.007 Y58.173 E31.67496
G1 X140.999 Y61.103 E31.95472
G1 X141.374 Y61.502 E31.99128
G1 X144.110 Y64.672 E32.27104
G1 X144.450 Y65.101 E32.30761
G1 X146.912 Y68.489 E32.58736
G1 X147.215 Y68.945 E32.62393
G1 X149.384 Y72.527 E32.90368
G1 X149.647 Y73.006 E32.94024
G1 X151.509 Y76.757 E33.22000
G1 X151.732 Y77.257 E33.25657
G1 X153.274 Y81.151 E33.53633
G1 X153.453 Y81.668 E33.57288
G1 X154.664 Y85.676 E33.85263
G1 X154.800 Y86.207 E33.88921
G1 X155.671 Y90.303 E34.16896
G1 X155.762 Y90.842 E34.20553
G1 X156.287 Y94.997 E34.48528
G1 X156.333 Y95.542 E34.52184
G1 X156.499 Y99.517 E34.78760
G1 X156.508 Y100.274 E34.83815
G1 X156.333 Y104.458 E35.11791
G1 X156.287 Y105.003 E35.15446
G1 X155.762 Y109.158 E35.43422
G1 X155.671 Y109.697 E35.47078
G1 X154.800 Y113.793 E35.75054
G1 X154.664 Y114.324 E35.78712
G1 X153.453 Y118.332 E36.06687
G1 X153.274 Y118.849 E36.10342
G1 X151.732 Y122.743 E36.38317
G1 X151.509 Y123.243 E36.41975
G1 X149.647 Y126.994 E36.69950
G1 X149.384 Y127.473 E36.73606
G1 X147.215 Y131.055 E37.01581
G1 X146.912 Y131.511 E37.05239
G1 X144.450 Y134.899 E37.33214
G1 X144.110 Y135.328 E37.36871
G1 X141.374 Y138.498 E37.64846
G1 X140.999 Y138.897 E37.68503
G1 X138.007 Y141.827 E37.96478
G1 X137.601 Y142.193 E38.00133
G1 X134.374 Y144.862 E38.28108
G1 X133.938 Y145.193 E38.31766
G1 X130.499 Y147.583 E38.59742
G1 X130.037 Y147.876 E38.63398
G1 X126.411 Y149.970 E38.91373
G1 X125.926 Y150.224 E38.95029
G1 X122.137 Y152.007 E39.23005
G1 X121.632 Y152.219 E39.26663
G1 X117.707 Y153.679 E39.54638
G1 X117.186 Y153.848 E39.58294
G1 X113.153 Y154.974 E39.86269
G1 X112.620 Y155.099 E39.89925
G1 X108.507 Y155.883 E40.17900
G1 X107.965 Y155.963 E40.21557
G1 X103.801 Y156.401 E40.49533
G1 X103.254 Y156.435 E40.53189
G1 X99.068 Y156.523 E40.81165
G1 X98.521 Y156.512 E40.84821
G1 X94.341 Y156.249 E41.12796
G1 X93.797 Y156.192 E41.16453
G1 X89.654 Y155.580 E41.44428
G1 X89.116 Y155.477 E41.48086
G1 X85.040 Y154.521 E41.76061
G1 X84.513 Y154.374 E41.79716
G1 X80.530 Y153.080 E42.07692
G1 X80.017 Y152.889 E42.11348
G1 X76.156 Y151.266 E42.39324
G1 X75.661 Y151.033 E42.42981
G1 X71.950 Y149.093 E42.70956
G1 X71.476 Y148.820 E42.74612
G1 X67.940 Y146.576 E43.02588
G1 X67.491 Y146.263 E43.06245
G1 X64.155 Y143.731 E43.34220
G1 X63.734 Y143.383 E43.37877
G1 X60.622 Y140.580 E43.65852
G1 X60.231 Y140.198 E43.69509
G1 X57.364 Y137.145 E43.97484
G1 X57.006 Y136.731 E44.01141
G1 X54.405 Y133.449 E44.29116
G1 X54.084 Y133.006 E44.32772
G1 X51.766 Y129.518 E44.60748
G1 X51.483 Y129.050 E44.64404
G1 X49.465 Y125.380 E44.92379
G1 X49.222 Y124.890 E44.96037
G1 X47.519 Y121.064 E45.24012
G1 X47.317 Y120.556 E45.27668
G1 X45.940 Y116.601 E45.55643
G1 X45.782 Y116.077 E45.59300
G1 X44.740 Y112.021 E45.87275
G1 X44.627 Y111.485 E45.90932
G1 X43.928 Y107.357 E46.18908
G1 X43.860 Y106.814 E46.22564
G1 X43.509 Y102.641 E46.50539
G1 X43.486 Y102.094 E46.54196
G1 X43.486 Y97.906 E46.82171
G1 X43.509 Y97.359 E46.85827
G1 X43.860 Y93.186 E47.13803
G1 X43.928 Y92.643 E47.17459
G1 X44.627 Y88.515 E47.45434
G1 X44.740 Y87.979 E47.49091
G1 X45.782 Y83.923 E47.77066
G1 X45.940 Y83.399 E47.80724
G1 X47.317 Y79.444 E48.08699
G1 X47.519 Y78.936 E48.12354
G1 X49.222 Y75.110 E48.40330
G1 X49.465 Y74.620 E48.43988
G1 X51.483 Y70.950 E48.71963
G1 X51.766 Y70.482 E48.75619
G1 X54.084 Y66.994 E49.03594
G1 X54.405 Y66.551 E49.07251
G1 X57.006 Y63.269 E49.35225
G1 X57.364 Y62.855 E49.38883
G1 X60.190 Y59.846 E49.66457
G1 E47.66457 F1800.00000
G92 E0
G1 X58.435 Y81.979 F6000.000
G1 E2.00000 F1800.00000
G1 X58.240 Y82.247 E2.02214 F1500.000
G1 X57.985 Y82.458 E2.04424
G1 X57.686 Y82.599 E2.06634
G1 X57.361 Y82.661 E2.08846
G1 X57.030 Y82.640 E2.11056
G1 X56.716 Y82.538 E2.13266
G1 X56.436 Y82.360 E2.15479
G1 X56.209 Y82.119 E2.17691
G1 X56.050 Y81.829 E2.19900
G1 X55.968 Y81.509 E2.22110
G1 X55.968 Y81.177 E2.24322
G1 X56.050 Y80.857 E2.26532
G1 X56.209 Y80.567 E2.28742
G1 X56.436 Y80.326 E2.30954
G1 X56.716 Y80.148 E2.33166
G1 X57.030 Y80.046 E2.35377
G1 X57.361 Y80.025 E2.37586 F1500.000
G1 X57.686 Y80.087 E2.39799
G1 X57.985 Y80.228 E2.42008
G1 X58.240 Y80.439 E2.44219
G1 X58.435 Y80.707 E2.46433
G1 X58.557 Y81.015 E2.48642
G1 X58.598 Y81.343 E2.50852
G1 X58.557 Y81.671 E2.53063
G1 X58.457 Y81.923 E2.54872
G1 X57.962 Y81.719 F6000.000
G1 X57.847 Y81.877 E2.56180 F1500.000
G1 X57.696 Y82.002 E2.57487
G1 X57.519 Y82.085 E2.58793
G1 X57.327 Y82.122 E2.60100
G1 X57.132 Y82.110 E2.61407
G1 X56.946 Y82.049 E2.62713
G1 X56.780 Y81.944 E2.64021
G1 X56.646 Y81.802 E2.65328
G1 X56.552 Y81.630 E2.66634
G1 X56.504 Y81.441 E2.67941
G1 X56.504 Y81.245 E2.69248
G1 X56.552 Y81.056 E2.70554
G1 X56.646 Y80.884 E2.71861
G1 X56.780 Y80.742 E2.73168
G1 X56.946 Y80.637 E2.74475
G1 X57.132 Y80.576 E2.75782
G1 X57.327 Y80.564 E2.77088 F1500.000
G1 X57.519 Y80.601 E2.78396
G1 X57.696 Y80.684 E2.79702
G1 X57.847 Y80.809 E2.81009
G1 X57.962 Y80.967 E2.82317
G1 X58.034 Y81.149 E2.83623
G1 X58.058 Y81.343 E2.84929
G1 X58.034 Y81.537 E2.86236
G1 X57.984 Y81.663 E2.87142
G1 X58.056 Y81.890 F6000.000
G1 X84.811 Y58.393 F6000.000
G1 X84.412 Y57.667 E2.92676 F1500.000
G1 X84.206 Y56.864 E2.98210
G1 X84.206 Y56.036 E3.03744
G1 X84.412 Y55.234 E3.09279
G1 X84.811 Y54.508 E3.14812
G1 X85.378 Y53.904 E3.20346
G1 X86.078 Y53.460 E3.25880
G1 X86.866 Y53.204 E3.31414
G1 X87.657 Y53.154 E3.36708 F1500.000
G1 X88.502 Y53.305 E3.42441
G1 X89.256 Y53.660 E3.48010
G1 X89.894 Y54.188 E3.53544
G1 X90.381 Y54.858 E3.59077
G1 X90.686 Y55.628 E3.64611
G1 X90.790 Y56.450 E3.70145
G1 X90.686 Y57.272 E3.75679
G1 X90.381 Y58.042 E3.81214
G1 X89.894 Y58.712 E3.86747
G1 X89.256 Y59.241 E3.92281
G1 X88.510 Y59.592 E3.97789
G1 X87.719 Y59.750 E4.03179
G1 X86.866 Y59.696 E4.08888
G1 X86.078 Y59.441 E4.14422
G1 X85.378 Y58.997 E4.19956
G1 X84.853 Y58.437 E4.25089
G1 X85.248 Y58.075 F6000.000
G1 X84.914 Y57.468 E4.29719 F1500.000
G1 X84.742 Y56.797 E4.34349
G1 X84.742 Y56.104 E4.38979
G1 X84.914 Y55.432 E4.43609
G1 X85.248 Y54.825 E4.48238
G1 X85.723 Y54.320 E4.52868
G1 X86.308 Y53.949 E4.57498
G1 X86.967 Y53.734 E4.62128
G1 X87.626 Y53.693 E4.66540 F1500.000
G1 X88.338 Y53.820 E4.71369
G1 X88.966 Y54.116 E4.76011
G1 X89.500 Y54.558 E4.80641
G1 X89.908 Y55.118 E4.85271
G1 X90.163 Y55.763 E4.89901
G1 X90.250 Y56.450 E4.94531
G1 X90.163 Y57.138 E4.99161
G1 X89.908 Y57.782 E5.03791
G1 X89.500 Y58.343 E5.08421
G1 X88.966 Y58.785 E5.13051
G1 X88.341 Y59.079 E5.17671
G1 X87.682 Y59.211 E5.22157
G1 X86.967 Y59.166 E5.26945
G1 X86.308 Y58.952 E5.31575
G1 X85.723 Y58.581 E5.36205
G1 X85.289 Y58.119 E5.40434
G1 X84.849 Y58.101 F6000.000
G1 X78.736 Y117.336 F6000.000
G1 X80.510 Y117.675 E5.52499 F3000.000
G1 X82.145 Y118.444 E5.64566
G1 X83.536 Y119.595 E5.76631
G1 X84.598 Y121.056 E5.88698
G1 X85.263 Y122.736 E6.00764
G1 X85.489 Y124.528 E6.12830
G1 X85.263 Y126.320 E6.24896
G1 X84.598 Y127.999 E6.36961
G1 X83.536 Y129.460 E6.49028
G1 X82.145 Y130.611 E6.61094
G1 X80.510 Y131.380 E6.73160
G1 X78.736 Y131.719 E6.85226
G1 X76.934 Y131.605 E6.97292
G1 X75.216 Y131.047 E7.09357
G1 X73.691 Y130.079 E7.21424
G1 X72.455 Y128.763 E7.33490
G1 X71.584 Y127.180 E7.45555
G1 X71.135 Y125.431 E7.57622
G1 X71.135 Y123.625 E7.69687
G1 X71.584 Y121.875 E7.81754
G1 X72.455 Y120.292 E7.93820
G1 X73.691 Y118.976 E8.05886
G1 X75.216 Y118.008 E8.17952
G1 X76.934 Y117.450 E8.30018
G1 X78.491 Y117.352 E8.40439
G1 X78.676 Y117.340 E8.41683 F3000.000
G1 X78.702 Y117.875 F6000.000
G1 X80.344 Y118.188 E8.52844 F3000.000
G1 X81.855 Y118.900 E8.64006
G1 X83.143 Y119.965 E8.75168
G1 X84.125 Y121.316 E8.86330
G1 X84.740 Y122.870 E8.97492
G1 X84.949 Y124.528 E9.08654
G1 X84.740 Y126.185 E9.19816
G1 X84.125 Y127.739 E9.30978
G1 X83.143 Y129.090 E9.42140
G1 X81.855 Y130.155 E9.53302
G1 X80.344 Y130.867 E9.64464
G1 X78.702 Y131.180 E9.75626
G1 X77.035 Y131.075 E9.86788
G1 X75.446 Y130.559 E9.97949
G1 X74.035 Y129.663 E10.09111
G1 X72.891 Y128.445 E10.20273
G1 X72.086 Y126.981 E10.31435
G1 X71.671 Y125.363 E10.42597
G1 X71.671 Y123.692 E10.53759
G1 X72.086 Y122.074 E10.64921
G1 X72.891 Y120.610 E10.76083
G1 X74.035 Y119.392 E10.87245
G1 X75.446 Y118.497 E10.98407
G1 X77.035 Y117.980 E11.09569
G1 X78.524 Y117.887 E11.19538
G1 X78.642 Y117.879 E11.20330 F3000.000
G1 X78.668 Y118.414 F6000.000
G1 X80.177 Y118.702 E11.30587 F1500.000
G1 X81.566 Y119.356 E11.40845
G1 X82.749 Y120.334 E11.51103
G1 X83.652 Y121.577 E11.61361
G1 X84.217 Y123.004 E11.71619
G1 X84.409 Y124.528 E11.81877
G1 X84.217 Y126.051 E11.92135
G1 X83.652 Y127.479 E12.02392
G1 X82.749 Y128.721 E12.12650
G1 X81.566 Y129.700 E12.22908
G1 X80.177 Y130.353 E12.33166
G1 X78.668 Y130.641 E12.43424
G1 X77.136 Y130.545 E12.53682
G1 X75.676 Y130.070 E12.63939
G1 X74.379 Y129.247 E12.74197
G1 X73.328 Y128.128 E12.84455
G1 X72.588 Y126.783 E12.94713
G1 X72.207 Y125.295 E13.04971
G1 X72.207 Y123.760 E13.15228
G1 X72.588 Y122.273 E13.25487
G1 X73.328 Y120.927 E13.35744
G1 X74.379 Y119.808 E13.46002
G1 X75.676 Y118.985 E13.56260
G1 X77.136 Y118.510 E13.66518
G1 X78.558 Y118.421 E13.76035
G1 X78.609 Y118.418 E13.76375 F1500.000
G1 X78.904 Y118.090 F6000.000
G1 X99.693 Y106.856 F6000.000
G1 X99.501 Y106.507 E13.79036 F1500.000
G1 X99.336 Y105.862 E13.83484
G1 X99.336 Y105.196 E13.87932
G1 X99.501 Y104.551 E13.92381
G1 X99.822 Y103.967 E13.96829
G1 X100.278 Y103.482 E14.01277
G1 X100.840 Y103.125 E14.05726
G1 X101.473 Y102.919 E14.10174
G1 X102.114 Y102.879 E14.14460 F1500.000
G1 X102.785 Y102.999 E14.19012
G1 X103.395 Y103.286 E14.23516
G1 X103.908 Y103.710 E14.27964
G1 X104.299 Y104.249 E14.32412
G1 X104.544 Y104.868 E14.36861
G1 X104.628 Y105.529 E14.41309
G1 X104.544 Y106.189 E14.45757
G1 X104.299 Y106.808 E14.50205
G1 X103.908 Y107.347 E14.54654
G1 X103.395 Y107.771 E14.59102
G1 X102.792 Y108.055 E14.63550
G1 X102.138 Y108.180 E14.67999
G1 X101.473 Y108.138 E14.72447
G1 X100.840 Y107.932 E14.76895
G1 X100.278 Y107.575 E14.81343
